X:1
T:Title
%%score { ( 1 3 ) | ( 2 4 ) }
L:1/8
M:6/8
K:F
V:1 treble nm="Grand Piano"
V:3 treble 
V:2 bass 
V:4 bass 
V:1
 z3 z2[Q:1/4=90] F | A2 A A2 A | A2 F F2 A | [Ac]2 [Ac] [Ac][Bd][Ac] |[M:5/8] A-A- A3 |[M:1/8] F | %6
[M:3/4] [EG]2 [EG] [EG]2 [EG] | [EG]2 [CE] [CE]2 [EG] | [EG]2 [EG]E- [EA][B,EG] | %9
[M:5/8] [F,A,F]-[F,A,F]- [F,A,F]3 |[M:1/8] [CFA] |[M:3/4] [Ac][Ac] [Ac][Ac] [Bd][Ac] | %12
 [Ac]2 A F2 c | [Af]2 d c2 A |[M:5/8] c2- [Fc-] [Gc]2 |[M:1/8] [Ec] |[M:3/4] c2 F A2 c | %17
[M:7/8] [Af]2 [cf] f3 d |[M:3/4] cd [Fc] [EG]2 [Ec] |[M:5/8] [A,F]-[A,F]- [A,F]3 |] %20
V:2
 z3 z2 [F,A,C] | [F,CF]2 [F,CF] [F,CF]2 [F,CF] | [F,CF]2 [F,A,C] [F,A,C]2 [F,CF] | %3
 [F,F]2 [F,F] [F,F]2 [F,C] |[M:5/8] [F,CF]-[F,CF]- [F,CF]3 |[M:1/8] [F,A,] | %6
[M:3/4] [C,C]2 [C,C] [C,C]2 [C,C] | [C,C]2 [C,G,] [C,G,]2 [C,C] | [C,C]2 .[C,C]2 CC, | %9
[M:5/8] F,,-F,,- F,,3 |[M:1/8] F, |[M:3/4] [F,F][F,F] [F,F] [F,F]2 [F,F] | %12
 [F,F]2 [F,CF] [F,A,C]2 [F,A,F] | [F,C]2 [F,B,F] [F,A,F]2 [F,F] |[M:5/8] [C,G,]2 [C,A,] [C,B,]2 | %15
[M:1/8] [C,B,] |[M:3/4] [F,A,F]2 [F,A,C] [F,CF]2 [F,A,F] | %17
[M:7/8] [F,C]2[K:treble] [A,_E] [B,DB]3 [B,FB] |[M:3/4] .A2[K:bass] z2 z2 | %19
[M:5/8] [F,,F,]-[F,,F,]- [F,,F,]3 |] %20
V:3
 x6 | x6 | x6 | x6 |[M:5/8] x5 |[M:1/8] x |[M:3/4] x6 | x6 | z2 z [B,G] z2 |[M:5/8] x5 |[M:1/8] x | %11
[M:3/4] x6 | x6 | x6 |[M:5/8] E2 z z2 |[M:1/8] x |[M:3/4] x6 |[M:7/8] x7 |[M:3/4] x6 |[M:5/8] x5 |] %20
V:4
 x6 | x6 | x6 | x6 |[M:5/8] x5 |[M:1/8] x |[M:3/4] x6 | x6 | z2 z .C,3 |[M:5/8] x5 |[M:1/8] x | %11
[M:3/4] x6 | x6 | x6 |[M:5/8] x5 |[M:1/8] x |[M:3/4] x6 |[M:7/8] x2[K:treble] x5 | %18
[M:3/4] [CF]-[CFB][K:bass] [C,A,] [C,C]2 [C,B,] |[M:5/8] x5 |] %20

